X:490
T:When Jesus Swings The Wrecking Ball
C:Alan Bibey & Grasstowne - Gonna Rise And Shine
N:mandolin: Alan Bibey - Transcribed by Philippe Colleu
R:bluegrass
L:1/8
Q:1/4=200
M:4/4
K:C
"(105bpm)"z2 eE Ee E^F | "E"dB ^cB c/d/c B^G | ^cG/z/ ^GB =G/^F/E ^CE | "A"B,^C EB, G/^G/B =G/z/^F | 
"E"E^C [E2B,2] B,D B,C | E^F G^G B=G/z/ F=F | "F#"^F=F ^F=F ^F^G BG | "B"^c/d/c BA A^F ED | 
^DB =D^D B=D _B/z=B/ | "E"zd e2 [g3/2B3/2E3/2]z/ ^ge | z2 [a/B/]z/b2_b ag | "A"a/_b/a ge a2 =bg/z/ | 
"E"^ge dB ed Bd | "C#m"ee (3ged (3edB (3_BAG | "E"(3A_BA GE AG ED | "B"ED B,_B, A,G, ^G,E | 
"E"z8 | 


